X:1
T:Title
%%score { ( 1 3 ) | ( 2 4 ) }
L:1/8
M:4/4
K:Bb
V:1 treble nm="Grand Piano"
V:3 treble 
V:2 bass 
V:4 bass 
V:1
 z4 z2[Q:1/4=86] F2 | [DB][DB][DA][DA] [_DG][DG][B,=DF][B,D] | [DF][DF][EG][EA] [DB]3 B | %3
 [Fd][Fd][^Fd][Fc] [GB]BGB | c4 z4 | BBAA [_DG][DG][B,=DF][B,D] | [DF][DF][EG][EA] [DB]3 B | %7
 cBAG Fdcc |[M:3/4] [DB]6 |[M:1/4] [DF]2 |[M:4/4] [DB][DB][EA][DB] [Dc][DB][DF][DG] | A6 z2 | %12
 cc=Bc dcF[Ge] | d6 z2 | [DF][DF][_D=E][=DF] [DB]2 [_EA][FB] | %15
[M:9/8] [Gc][Gc][Gd] [Gd] [Ge]2- [Ge][Gd][Gc] |[M:4/4] fded dcAF |[M:3/4] B6 |] %18
V:2
 z4 z2 D2 | B,,F,B,F, B,,=E,F,F, | B,,B,E,C, B,,F,B,D | B,,F,A,B,, E,[K:treble][B,G][A,=E][G,E] | %4
 E4- [EA]2 E2 | [D,D][F,D][B,D][F,D] B,,=E,F,F, | B,,B,E,C, G,,D,G,D | %7
 [E,E][G,E][B,_D][=E,D] [F,B,]-[F,B,F]EE |[M:3/4] [B,,B,]6 |[M:1/4] [B,,B,]2 | %10
[M:4/4] [B,,F,][B,,F,][C,F,][B,,F,] [B,,F,][B,,F,][B,,B,][B,,B,] | %11
 [F,CE]2 [F,C][F,C] [F,C]2 [F,A,E]2 | [F,A,E][F,A,E][F,_A,D][F,=A,E] [F,B,F][F,A,E][F,B,E][F,A,] | %13
 [B,,B,]2 [B,,B,][B,,B,] [B,,B,]2 [B,,F,B,][B,,F,] | %14
 [B,,B,][B,,B,][B,,B,][B,,B,] [B,,F,]2 [C,F,][D,B,] | %15
[M:9/8] [E,B,][E,B,][D,=B,] [D,B,] [C,C]2- [C,C][D,_B,][E,C] | %16
[M:4/4][K:treble] [F,DF][F,B,F][G,=B,F][G,B,F] [G,_B,=E][K:bass][G,B,E][F,C_E][F,A,E] | %17
[M:3/4] z F, G,=E, F,2 |] %18
V:3
 x8 | x8 | x8 | x8 | z AB=B c2 F2 | x8 | x8 | x8 |[M:3/4] x6 |[M:1/4] x2 |[M:4/4] x8 | %11
 z2 EE E2 F2 | x8 | F2 FF F2 D[CE] | x8 |[M:9/8] x9 |[M:4/4] x8 |[M:3/4] [B,D]D E_D =D2 |] %18
V:4
 x8 | x8 | x8 | x5[K:treble] x3 | .F2 z2 z4 | x8 | x8 | z4 .=D2 [F,A,]2 |[M:3/4] x6 |[M:1/4] x2 | %10
[M:4/4] x8 | x8 | x8 | x8 | x8 |[M:9/8] x9 |[M:4/4][K:treble] x5[K:bass] x3 |[M:3/4] B,,6 |] %18

